X:1
T:Title
%%score { ( 1 3 5 ) | ( 2 4 ) }
L:1/8
Q:1/4=100
M:4/4
K:G
V:1 treble nm="Grand Piano"
V:3 treble 
V:5 treble 
V:2 treble 
V:4 treble 
V:1
 B>B B>_B =B2 d>e | d2 G2 B2 c>B |[M:3/4] A6 |[M:1/4] [DFB]>[CFA] |[M:4/4] G6 z2 | %5
w: W.~A.~Ogden * * * * * *|||||
 B>B B>_B =B2 d>e |[M:3/4] d2 G2 B2 |[M:1/4] [Ac]>[GB] |[M:4/4] [FA]2 [FA]>[GB] [Ac]2 [GB]>[CDA] | %9
w: ||||
 [B,DG]6 z2 | [EG]6 z2 | [Gd]4 z4 | [Fd]4 [FA]2 [Fd]2 | [Gd]4 [GB]2 z2 | %14
w: |||||
 z z/ C/ C>C z z/ G/ [Ec]>[Ge] | [Gd]4 z4 | %16
w: ||
 [Fd]2 [FA]>[GB] [Ac]2 [FB]>[CFA][Q:1/4=98][Q:1/4=96][Q:1/4=94][Q:1/4=92][Q:1/4=90][Q:1/4=88][Q:1/4=85][Q:1/4=83][Q:1/4=81][Q:1/4=79][Q:1/4=77] | %17
w: |
[M:3/4] G6 |] %18
w: |
V:2
 [G,DG]>[G,DG] [G,DG]>[G,^CG] [G,DG]2 [G,B,G]>[G,=CG] | [G,B,G]2 [G,B,]2 [G,DG]2 A>G | %2
[M:3/4] F6[K:bass] |[M:1/4] D,>D, |[M:4/4] z2 C2 B,2 z2 | %5
 [G,DG]>[G,DG] [G,DG]>[G,^CG] [G,DG]2 [G,B,G]>[G,=CG] |[M:3/4] [G,B,G]2 [G,B,]2 [G,DG]2 | %7
[M:1/4][K:bass] [G,D]>[G,D] |[M:4/4] [D,D]2 [D,D]>[D,D] [D,D]2 [D,D]>D, | G,,6 z2 | %10
 C,>C, C,>C, z z/ E/ [C,C]2 | [G,B,]2 G,2[K:treble] [G,DG]2 [G,B,G]2 | [D,A,]4 [D,D]2 [D,C]2 | %13
 [G,B,]4 [G,D]2 z2 | [C,C]>C, C,>C, z z/ E/ [C,C]2 | [G,B,]2 G,2[K:treble] [G,DG]2 [G,B,G]2 | %16
 [D,A,]2 [D,D]>[D,D] [D,D]2 [D,D]>D, |[M:3/4] z2 C2 B,2 |] %18
V:3
 x8 | x8 |[M:3/4] z2 D>D D2 |[M:1/4] x2 |[M:4/4] B,2 E2 DD G>A | x8 |[M:3/4] x6 |[M:1/4] x2 | %8
[M:4/4] x8 | x8 | C>C C>C z z/ G/ [Ec]>[Ge] | z2 B,2 B2 d2 | x8 | x8 | [EG]6 z2 | z2 B,2 B2 d2 | %16
 x8 |[M:3/4] B,2 E2 D2 |] %18
V:4
 x8 | x8 |[M:3/4] z2[K:bass] D,>D, D,2 |[M:1/4] x2 |[M:4/4] G,6 z2 | x8 |[M:3/4] x6 | %7
[M:1/4][K:bass] x2 |[M:4/4] x8 | x8 | z4 C,2 z2 | x4[K:treble] x4 | x8 | x8 | z4 C,2 z2 | %15
 x4[K:treble] x4 | x8 |[M:3/4] G,,6 |] %18
V:5
 x8 | x8 |[M:3/4] x6 |[M:1/4] x2 |[M:4/4] x8 | x8 |[M:3/4] x6 |[M:1/4] x2 |[M:4/4] x8 | x8 | %10
 z4 C2 z2 | x8 | x8 | x8 | z4 C2 z2 | x8 | x8 |[M:3/4] x6 |] %18

